X: 658
T: Hop High Ladies
B: jims roots
M:2/4
L:1/8
R: Reel
Q: 1/4=100
K:G
V:1 
%Z:<cfalt@trytel.com> www.trytel.com/~cfalt/Fiddle/The_List.abc
BA | "G"G2g2 edeg | B2BA B2BA | G2g2 edeg | "D7"A2AG AcBA |
"G"G2g2 edeg | B2BA B2d2 | "D7"e3f e3f | "G"gedB "D7"A2 :|
 |: BA | "G"GABc dBGA | B2BA B2BA | GABc dBGB | "D7"A2AG AcBA |
"G"GABc dBGA | B2BA B2d2 | "D7"e3f e3f | "G"gedB "D7"A2:|]
% abcbook-tune_id 6298c25d7583a416f760bc79


% abcbook-boost 0
% abcbook-tablature 
% abcbook-transpose 
% abcbook-lastupdated 1654178398876
% abcbook-soundfonts 
% abcbook-repeats 1


